X:3352
T:Mazurka
M:3/4
L:1/8
C: Anton Persson
O: Blekinge
Q: 1/4=175
R: Mazurka
K:G
dc B2 g2 | f>g a4 | A>B ce dc | BA Bc d2 | 
dc B2 g2 | f>g a4 | A>B ce FA | [B2G2] [B2G2] z2 :| 
|:{/D}GA Bc d2 | g>d B2 B2 | e>A [A2F2] [A2F2] | d>B G2 G2 | 
{/D}GA Bc d2 | g>d B2 B2 | e>A [A2F2] [A2F2] | [B2G2] [B2G2] z2:|
|: d>c [B2G2] [B2G2] | c>B A4 | c>A [A2F2] [A2F2] | dcB4 | 
d>c B2 B2 | g>f e4 | AB cA FA | G2 [g4B4] :|]
(:musicend:)
(:music:)
